X:127
T:Edna's Entracte 
C:By A.F. Hopkins, Co.A.154th O.V.I.
B:American Veteran Fifer #127
M:2/4
L:1/8
Q:1/8=180
K:D
|: f/aa/ e/gg/|f/aa/ ga/g/|f/aa/ g/e/c/e/|d/f/e/c/ Ad/e/|f/aa/ e/gg/|f/aa/ ga/g/|f/aa/ g/e/c/A/|dfd z :|
|: A/c/d/f/ bf|a2 f/a/f/a/|g/f/g/e/ Bc|e/c/d/f/ e/d/c/B/|A/c/d/f/ bf|a2 f/a/f/a/|g/f/g/e/ Bc|df d2 :|
